X: 1
T:The World's End
M:C|
L:1/8
C:Michael Holmes and Liam Kelly
R:Reel
D:Dervish - Live in Palm
Z:John Norvel
K:BMin
|: "swing feel" ~F2 BF dF cF |  F2 BA FE ED |  F2 BF d2 (3Bcd | cA ae cB
 BA |!
     F2 BF dF cF |  F2 BA FE ED |  F2 BF d2 (3Bcd |1 (3cBA ec AB BA :|2
(3cBA ec BB B2 ||!
|: ec BA F2 AF | EA ce d2 cA |  Ec BA FF F2 |  ce fe ae cA |!
   Fc BA F2 AF | EA ce d2 cA |  Ec BA EF F2 |  ce fe aa a2 :|!
|: Bc dc B2 Bc | dc BA FE ED | Bc dc Bc de | f2 gf ed cA |!
  (3Bcd cA (3Bcd cA | d2 BA FE ED | GG GA B2 (3Bcd | ed cA B2 BA :|!
